packages/ui-icons/svg/Line/rotate-right.svg

<svg viewBox="0 0 1920 1920" xmlns="http://www.w3.org/2000/svg">
    <path fill-rule="evenodd" clip-rule="evenodd" d="M639.999 209.777h116.019L621.665 75.425 697.09 0l263.111 263.111-260.196 260.196-75.425-75.424 131.439-131.439h-116.02c-176.731 0-320 143.269-320 320H213.332c0-235.642 191.025-426.667 426.667-426.667Zm0 643.556c0-117.82 95.512-213.333 213.333-213.333h853.338c117.82 0 213.33 95.513 213.33 213.333v853.337c0 117.82-95.51 213.33-213.33 213.33H853.332c-117.821 0-213.333-95.51-213.333-213.33V853.333Zm213.333-106.666h853.338c58.91 0 106.66 47.756 106.66 106.666v853.337c0 58.91-47.75 106.66-106.66 106.66H853.332c-58.91 0-106.667-47.75-106.667-106.66V853.333c0-58.91 47.757-106.666 106.667-106.666Z"/>
</svg>

<svg viewBox="0 0 1920 1920" xmlns="http://www.w3.org/2000/svg">
    <path fill-rule="evenodd" clip-rule="evenodd" stroke="none" stroke-width="1" d="M639.999 209.777H756.018L621.665 75.4247L697.09 0L960.201 263.111L700.005 523.307L624.58 447.883L756.019 316.444H639.999C463.268 316.444 319.999 459.713 319.999 636.444H213.332C213.332 400.802 404.357 209.777 639.999 209.777Z M639.999 853.333C639.999 735.513 735.511 640 853.332 640H1706.67C1824.49 640 1920 735.513 1920 853.333V1706.67C1920 1824.49 1824.49 1920 1706.67 1920H853.332C735.511 1920 639.999 1824.49 639.999 1706.67V853.333ZM853.332 746.667H1706.67C1765.58 746.667 1813.33 794.423 1813.33 853.333V1706.67C1813.33 1765.58 1765.58 1813.33 1706.67 1813.33H853.332C794.422 1813.33 746.665 1765.58 746.665 1706.67V853.333C746.665 794.423 794.422 746.667 853.332 746.667Z"/>
</svg>
